!!!OTL: Nachtigall als Warnerin
!!!OTL-incipit: Et sass e kli waelt Vijeltchen af enem graenen Naestchen
!!!ARE: Europa, Mitteleuropa, Deutschland, Siebenbuergen
!!!SCT: D0220
!!!TXL: @@GMW  Moselle Franconian
!!!YEM: Copyright 1995, estate of Helmut Schaffrath.
**kern	**text
*ICvox	*
!! Mixed meters:  3/4; 2/4
*M3/4	*
*k[b-e-]	*
*g:	*
{8d	Et
=1	=1
8.gL	sas
16gJ	e
4.g	kli
8a	Wält-
=2	=2
8.b-L	-fi-
16aJ	-jelt-
4.g}	-chen
{8g	aw
=3	=3
*M2/4	*
8ddL	e-
8ddJ	-nem
8dL	gra-
8dJ	-ne'
=4	=4
*M3/4	*
[8.gL	Naszt-
16gJ]	.
4g	-chen;
8r}	.
{8dd	et
=5	=5
8.ddL	sang
16ccJ	da
(4.b-	ganz
8dd)	.
=6	=6
8.ccL	Wainj-
16b-J	-ter-
4a	-nocht,
8r}	.
{8a	de
=7	=7
8.gL	Stäm
16gJ	da
4.b-	moszt
8f#	em
=8	=8
[8.gL	kläin-
16gJ]	.
4g	-jen.
8r}	.
==	==
!!!AGN: Liebes - Ballade
!! Variante zum folgenden D0220A, Inzipit = Variante zum Lied
!!!ONB: ESAC (Essen Associative Code) Database: DVA
!!!AMT: irregular
!!!AIN: vox
!!!EED: Helmut Schaffrath
!!!EEV: 1.0
!!!source: Deutsche Volkslieder mit ihren Melodien Balladen. Herausgegeben vom Deutschen Volksliedarchiv. Sechster Band. Freiburg/Breisgau 1976.
!!!page: 221
!!!ENC: Anna Maria Matuszewska
!!!EEV: 2025/06/04
*-	*-
